X: 11523
T: Eddie Moloney's
R: reel
M: 4/4
K: Dmajor
|:dFF2 ~A2FA|dff2 egfe|dFF2 ~A3d|BEE2 GABc:|
|:dzdF ~A2Bc|defd egfe|dedF ~A3d|BEE2 GABc:|

